public/icons/south-korea.svg

<svg width="52" height="52" viewBox="0 0 52 52" fill="none" xmlns="http://www.w3.org/2000/svg">
<path d="M52 38.9999C52 40.5323 51.3913 42.0019 50.3077 43.0854C49.2242 44.169 47.7546 44.7777 46.2222 44.7777H5.77778C4.24542 44.7777 2.77582 44.169 1.69227 43.0854C0.608728 42.0019 0 40.5323 0 38.9999V12.9999C0 11.4676 0.608728 9.99798 1.69227 8.91444C2.77582 7.8309 4.24542 7.22217 5.77778 7.22217H46.2222C47.7546 7.22217 49.2242 7.8309 50.3077 8.91444C51.3913 9.99798 52 11.4676 52 12.9999V38.9999Z" fill="white"/>
<path d="M30.9704 18.9006C29.0874 17.5825 26.758 17.0663 24.4945 17.4655C22.231 17.8648 20.2188 19.1469 18.9006 21.0297C18.2781 21.9721 18.048 23.1201 18.2592 24.2296C18.4704 25.339 19.1062 26.3223 20.0314 26.97C20.9566 27.6177 22.098 27.8788 23.2128 27.6976C24.3275 27.5165 25.3275 26.9074 26 26.0001C26.3265 25.5339 26.7415 25.1366 27.2215 24.8309C27.7015 24.5251 28.237 24.3169 28.7975 24.2181C29.358 24.1193 29.9324 24.1319 30.488 24.2551C31.0436 24.3783 31.5695 24.6098 32.0356 24.9362C32.5018 25.2627 32.8991 25.6777 33.2048 26.1577C33.5106 26.6377 33.7188 27.1732 33.8176 27.7337C33.9164 28.2942 33.9038 28.8686 33.7806 29.4242C33.6574 29.9798 33.4259 30.5057 33.0995 30.9718C33.7524 30.0395 34.2152 28.9876 34.4616 27.8763C34.7079 26.7651 34.733 25.6162 34.5352 24.4952C34.3375 23.3743 33.9209 22.3033 33.3093 21.3433C32.6976 20.3834 31.9028 19.5534 30.9704 18.9006Z" fill="#C60C30"/>
<path d="M32.0349 24.9369C31.0936 24.2776 29.929 24.0193 28.7973 24.2187C27.6656 24.418 26.6594 25.0588 26 26C25.3292 26.9121 24.3281 27.5255 23.2108 27.7091C22.0936 27.8927 20.9489 27.6318 20.0214 26.9823C19.094 26.3329 18.4575 25.3463 18.2481 24.2336C18.0386 23.1209 18.2728 21.9704 18.9006 21.0282C18.2286 21.9595 17.7485 23.0152 17.488 24.1337C17.2276 25.2522 17.1921 26.4113 17.3835 27.5437C17.575 28.6761 17.9896 29.7591 18.6032 30.7299C19.2169 31.7006 20.0173 32.5397 20.9581 33.1984C21.8989 33.8571 22.9612 34.3223 24.0833 34.5669C25.2054 34.8114 26.3649 34.8305 27.4944 34.6231C28.624 34.4156 29.701 33.9858 30.663 33.3584C31.625 32.7311 32.4527 31.9189 33.098 30.9689C33.4245 30.5031 33.656 29.9775 33.7793 29.4222C33.9026 28.8669 33.9153 28.2927 33.8165 27.7325C33.7178 27.1723 33.5096 26.6371 33.2039 26.1574C32.8982 25.6777 32.501 25.263 32.0349 24.9369Z" fill="#003478"/>
<path d="M35.1491 36.9373L37.934 33.618L39.0405 34.5468L36.2556 37.8661L35.1491 36.9373ZM38.8613 32.513L41.6462 29.1951L42.7527 30.1239L39.9678 33.4418L38.8613 32.513ZM37.362 38.7978L40.1469 35.4799L41.2533 36.4086L38.4685 39.7265L37.362 38.7978ZM41.0771 34.3691L43.8649 31.0512L44.9713 31.9814L42.1836 35.2979L41.0771 34.3691ZM39.5735 40.6553L42.3612 37.3374L43.4662 38.2662L40.6799 41.5841L39.5735 40.6553ZM43.2871 36.2281L46.0706 32.9059L47.1785 33.8347L44.395 37.1569L43.2871 36.2281ZM43.2929 15.7719L44.3993 14.8431L47.1871 18.1639L46.0792 19.0927L43.2929 15.7719ZM39.5778 11.3432L40.6842 10.4144L43.4691 13.7352L42.3612 14.6625L39.5778 11.3432ZM37.3635 13.2037L38.4699 12.2749L44.9699 20.02L43.8635 20.9488L37.3635 13.2037ZM35.1506 15.0583L36.2584 14.1295L39.0419 17.4489L37.9355 18.3762L35.1506 15.0583ZM38.8628 19.4855L39.9692 18.5568L42.757 21.8747L41.652 22.8034L38.8628 19.4855ZM9.24445 30.1224L10.3509 29.1937L16.8495 36.9402L15.7416 37.869L9.24445 30.1224ZM7.03445 31.98L8.13945 31.0526L10.9258 34.372L9.8179 35.3008L7.03445 31.98ZM10.7423 36.4086L11.8488 35.4799L14.6366 38.7978L13.5301 39.7265L10.7423 36.4086ZM4.81867 33.8361L5.92512 32.9073L12.4251 40.6524L11.3172 41.5812L4.81867 33.8361ZM4.81723 18.161L11.3143 10.4159L12.4222 11.3432L5.92223 19.0898L4.81723 18.161ZM7.03012 20.02L13.5301 12.2734L14.6366 13.2022L8.13656 20.9473L7.03012 20.02ZM9.24445 21.8761L15.7445 14.1295L16.8509 15.0583L10.3509 22.8049L9.24445 21.8761Z" fill="#292F33"/>
</svg>

<svg xmlns="http://www.w3.org/2000/svg" width="52" height="52" fill="none"><path fill="#fff" d="M52 39a5.777 5.777 0 0 1-5.778 5.778H5.778A5.78 5.78 0 0 1 0 39V13a5.78 5.78 0 0 1 5.778-5.778h40.444A5.78 5.78 0 0 1 52 13z"/><path fill="#C60C30" d="M30.97 18.9a8.67 8.67 0 0 0-12.07 2.13A4.335 4.335 0 0 0 26 26a4.333 4.333 0 1 1 7.1 4.972A8.667 8.667 0 0 0 30.97 18.9"/><path fill="#003478" d="M32.035 24.937A4.333 4.333 0 0 0 26 26a4.335 4.335 0 0 1-7.1-4.972 8.667 8.667 0 1 0 14.198 9.94 4.33 4.33 0 0 0-1.063-6.031"/><path fill="#292F33" d="m35.15 36.937 2.784-3.319 1.107.929-2.785 3.32zm3.711-4.424 2.785-3.318 1.107.929-2.785 3.318zm-1.499 6.285 2.785-3.318 1.106.929-2.785 3.318zm3.715-4.429 2.788-3.318 1.106.93-2.787 3.317zm-1.503 6.286 2.787-3.318 1.105.93-2.786 3.317zm3.713-4.427 2.784-3.322 1.108.929-2.784 3.322zm.006-20.456 1.106-.929 2.788 3.32-1.108.93zm-3.715-4.429 1.106-.929 2.785 3.321-1.108.928zm-2.215 1.86 1.107-.928 6.5 7.745-1.106.929zm-2.212 1.855 1.107-.928 2.784 3.319-1.107.927zm3.712 4.427 1.106-.928 2.788 3.318-1.105.928zM9.244 30.123l1.107-.928 6.498 7.746-1.107.929zm-2.21 1.858 1.105-.927 2.787 3.319-1.108.929zm3.708 4.429 1.107-.93 2.788 3.319-1.107.928zM4.82 33.836l1.106-.929 6.5 7.745-1.108.93zm-.002-15.675 6.497-7.745 1.108.927-6.5 7.747zM7.03 20.02l6.5-7.747 1.107.93-6.5 7.744zm2.214 1.856 6.5-7.747 1.107.93-6.5 7.746z"/></svg>
